X:8
T:Turn Hill
D:Dan Brouder: The Lark's Air (2011)
Z:Gwenaël Lambrouin, 2016-11-19
I:Morceau en Ab sur le disque
R:fling
M:2/2
K:G
|: (3efg ed Bdg2 | GBdB GBd2 | (3efg ed Bdga |1 gede BAag :|2 gede BAA2 |
|: agab aga2 | gega geg2 | agab agab |1 gede BAA2 :|2 gede BAag |
% On peut finir avec: | agab agab | gedB BAGB || A8 ||

